src/pos-icons/pencil-off.svg

<svg height="24" viewBox="0 0 24 24" width="24" xmlns="http://www.w3.org/2000/svg"><path d="m18.66 2c-.26 0-.5.09-.69.28l-1.84 1.85 3.75 3.75 1.84-1.85c.39-.39.39-1.03 0-1.4l-2.34-2.35c-.2-.19-.47-.28-.72-.28m-15.38 2-1.28 1.28 6.5 6.47-4.5 4.5v3.75h3.75l4.5-4.5 6.47 6.5 1.28-1.28-6.5-6.47-3.75-3.75zm11.78 1.19-4.03 4.03 3.75 3.75 4.03-4.03z"/></svg>

<?xml version="1.0" encoding="UTF-8"?><!DOCTYPE svg PUBLIC "-//W3C//DTD SVG 1.1//EN" "http://www.w3.org/Graphics/SVG/1.1/DTD/svg11.dtd"><svg xmlns="http://www.w3.org/2000/svg" xmlns:xlink="http://www.w3.org/1999/xlink" version="1.1" id="mdi-pencil-off" width="24" height="24" viewBox="0 0 24 24"><path d="M18.66,2C18.4,2 18.16,2.09 17.97,2.28L16.13,4.13L19.88,7.88L21.72,6.03C22.11,5.64 22.11,5 21.72,4.63L19.38,2.28C19.18,2.09 18.91,2 18.66,2M3.28,4L2,5.28L8.5,11.75L4,16.25V20H7.75L12.25,15.5L18.72,22L20,20.72L13.5,14.25L9.75,10.5L3.28,4M15.06,5.19L11.03,9.22L14.78,12.97L18.81,8.94L15.06,5.19Z" /></svg>
